icon/ir/bitbucket.svg

<svg viewBox="0 0 24 24" stroke-width="1.5" fill="none" xmlns="http://www.w3.org/2000/svg" height="1em" width="1em">
  <path d="M20.9157 4.67442L19.0657 19.4744C19.0282 19.7747 18.7729 20 18.4703 20H5.52967C5.22708 20 4.97183 19.7747 4.9343 19.4744L3.0843 4.67442C3.03954 4.31631 3.31877 4 3.67967 4H20.3203C20.6812 4 20.9605 4.31631 20.9157 4.67442Z" stroke="currentColor" stroke-linecap="round" stroke-linejoin="round"/>
  <path d="M16.7501 7.75L15.8125 15.7201C15.7769 16.0223 15.5208 16.25 15.2166 16.25H8.78368C8.47942 16.25 8.22333 16.0223 8.18779 15.7201L7.32896 8.4201C7.287 8.06341 7.5657 7.75 7.92485 7.75H16.7501ZM16.7501 7.75H20.5" stroke="currentColor" stroke-linecap="round" stroke-linejoin="round"/>
</svg>

<svg width="24" height="24" stroke-width="1.5" fill="none" xmlns="http://www.w3.org/2000/svg"><path d="m20.916 4.674-1.85 14.8a.6.6 0 0 1-.596.526H5.53a.6.6 0 0 1-.596-.526l-1.85-14.8A.6.6 0 0 1 3.68 4h16.64a.6.6 0 0 1 .596.674Z" stroke="currentColor" stroke-linecap="round" stroke-linejoin="round"/><path d="m16.75 7.75-.938 7.97a.6.6 0 0 1-.595.53H8.784a.6.6 0 0 1-.596-.53l-.859-7.3a.6.6 0 0 1 .596-.67h8.825Zm0 0h3.75" stroke="currentColor" stroke-linecap="round" stroke-linejoin="round"/></svg>
